apps/scalable/info/applications-system-orange.svg

<svg xmlns="http://www.w3.org/2000/svg" style="isolation:isolate" width="256" height="256"><defs><filter id="a" width="270.648" height="254.338" x="-7.32" y="2.95" filterUnits="userSpaceOnUse"><feGaussianBlur xmlns="http://www.w3.org/2000/svg" in="SourceGraphic" stdDeviation="4.294"/><feOffset xmlns="http://www.w3.org/2000/svg" dy="4" result="pf_100_offsetBlur"/><feFlood xmlns="http://www.w3.org/2000/svg" flood-opacity=".4"/><feComposite xmlns="http://www.w3.org/2000/svg" in2="pf_100_offsetBlur" operator="in" result="pf_100_dropShadow"/><feBlend xmlns="http://www.w3.org/2000/svg" in="SourceGraphic" in2="pf_100_dropShadow"/></filter></defs><path fill="#FDA463" d="M165.685 11.947c74.055 0 84.639 10.557 84.639 84.544v59.251c0 73.986-10.584 84.543-84.639 84.543h-75.37c-74.055 0-84.639-10.557-84.639-84.543V96.491c0-73.987 10.584-84.544 84.639-84.544h75.37z" filter="url(#a)"/><path fill="#FFF" d="M5.676 126.116v29.626c0 73.986 10.584 84.543 84.639 84.543h75.37c74.055 0 84.639-10.557 84.639-84.543v-29.626H5.676z" opacity=".1"/><path fill="#FFF" d="M128 11.947v228.338h37.685c74.055 0 84.639-10.557 84.639-84.543V96.491c0-73.987-10.584-84.544-84.639-84.544H128z" opacity=".2"/><defs><filter id="b" width="90.957" height="169.128" x="84.04" y="42.44" filterUnits="userSpaceOnUse"><feGaussianBlur xmlns="http://www.w3.org/2000/svg" stdDeviation="2.389"/></filter></defs><path fill-rule="evenodd" d="M133.01 67.293C133.01 56.68 142.175 48 152.786 48c9.651 0 16.644 6.507 16.644 16.402 0 11.1-9.165 19.302-20.015 19.302-9.891-.001-16.405-6.517-16.405-16.411m-13.022 47.521c1.692-4.336-.479-6.508-2.412-6.508-8.924 0-20.502 20.986-24.836 20.986-1.692 0-3.139-1.692-3.139-3.139 0-4.343 10.61-14.469 13.749-17.609 9.645-9.166 22.187-16.161 36.174-16.161 10.371 0 21.468 6.269 12.782 29.673l-17.364 47.036c-1.446 3.618-4.097 9.654-4.097 13.512 0 1.684.959 3.377 2.889 3.377 7.233 0 20.501-20.507 23.88-20.507 1.205 0 2.889 1.445 2.889 3.617 0 6.995-28.213 36.909-52.572 36.909-8.686 0-14.714-4.097-14.714-13.263 0-11.579 8.2-31.36 9.892-35.465l16.879-42.458z" opacity=".3" filter="url(#b)"/><path fill="#FFF" fill-rule="evenodd" d="M133.01 67.293C133.01 56.68 142.175 48 152.786 48c9.651 0 16.644 6.507 16.644 16.402 0 11.1-9.165 19.302-20.015 19.302-9.891-.001-16.405-6.517-16.405-16.411m-13.022 47.521c1.692-4.336-.479-6.508-2.412-6.508-8.924 0-20.502 20.986-24.836 20.986-1.692 0-3.139-1.692-3.139-3.139 0-4.343 10.61-14.469 13.749-17.609 9.645-9.166 22.187-16.161 36.174-16.161 10.371 0 21.468 6.269 12.782 29.673l-17.364 47.036c-1.446 3.618-4.097 9.654-4.097 13.512 0 1.684.959 3.377 2.889 3.377 7.233 0 20.501-20.507 23.88-20.507 1.205 0 2.889 1.445 2.889 3.617 0 6.995-28.213 36.909-52.572 36.909-8.686 0-14.714-4.097-14.714-13.263 0-11.579 8.2-31.36 9.892-35.465l16.879-42.458z"/><g opacity=".4"><linearGradient id="c" x1=".517" x2=".517" y2="1"><stop offset="0%" stop-color="#fff"/><stop offset="12.5%" stop-opacity=".098" stop-color="#fff"/><stop offset="92.5%" stop-opacity=".098"/><stop offset="100%" stop-opacity=".498"/></linearGradient><path fill="none" stroke="url(#c)" stroke-linecap="round" stroke-linejoin="round" stroke-width="4.077" d="M165.685 11.947c74.055 0 84.639 10.557 84.639 84.544v59.251c0 73.986-10.584 84.543-84.639 84.543h-75.37c-74.055 0-84.639-10.557-84.639-84.543V96.491c0-73.987 10.584-84.544 84.639-84.544h75.37z" vector-effect="non-scaling-stroke"/></g></svg>

<svg xmlns="http://www.w3.org/2000/svg" style="isolation:isolate" width="256" height="256" viewBox="0 0 256 256">
 <defs>
  <filter id="UD1O1CaASSJbF6QEeJYNTJkVK3ZJTKMc" width="270.648" height="254.338" x="-7.32" y="2.95" filterUnits="userSpaceOnUse">
   <feGaussianBlur xmlns="http://www.w3.org/2000/svg" in="SourceGraphic" stdDeviation="4.294"/>
   <feOffset xmlns="http://www.w3.org/2000/svg" dx="0" dy="4" result="pf_100_offsetBlur"/>
   <feFlood xmlns="http://www.w3.org/2000/svg" flood-opacity=".4"/>
   <feComposite xmlns="http://www.w3.org/2000/svg" in2="pf_100_offsetBlur" operator="in" result="pf_100_dropShadow"/>
   <feBlend xmlns="http://www.w3.org/2000/svg" in="SourceGraphic" in2="pf_100_dropShadow" mode="normal"/>
  </filter>
 </defs>
 <g filter="url(#UD1O1CaASSJbF6QEeJYNTJkVK3ZJTKMc)">
  <path fill="#FDA463" d="M 165.685 11.947 C 239.74 11.947 250.324 22.504 250.324 96.491 L 250.324 155.742 C 250.324 229.728 239.74 240.285 165.685 240.285 L 90.315 240.285 C 16.26 240.285 5.676 229.728 5.676 155.742 L 5.676 96.491 C 5.676 22.504 16.26 11.947 90.315 11.947 L 165.685 11.947 Z"/>
 </g>
 <g opacity=".1">
  <path fill="#FFFFFF" d="M 5.676 126.116 L 5.676 155.742 C 5.676 229.728 16.26 240.285 90.315 240.285 L 165.685 240.285 C 239.74 240.285 250.324 229.728 250.324 155.742 L 250.324 126.116 L 5.676 126.116 Z"/>
 </g>
 <g opacity=".2">
  <path fill="#FFFFFF" d="M 128 11.947 L 128 240.285 L 165.685 240.285 C 239.74 240.285 250.324 229.728 250.324 155.742 L 250.324 96.491 C 250.324 22.504 239.74 11.947 165.685 11.947 L 128 11.947 Z"/>
 </g>
 <g>
  <defs>
   <filter id="9PauuvZMbGCZ4aMJjj4RMsSgsZrvUxPR" width="90.957" height="169.128" x="84.04" y="42.44" filterUnits="userSpaceOnUse">
    <feGaussianBlur xmlns="http://www.w3.org/2000/svg" stdDeviation="2.389"/>
   </filter>
  </defs>
  <g opacity=".3" filter="url(#9PauuvZMbGCZ4aMJjj4RMsSgsZrvUxPR)">
   <path fill-rule="evenodd" d="M 133.01 67.293 C 133.01 56.68 142.175 48 152.786 48 C 162.437 48 169.43 54.507 169.43 64.402 C 169.43 75.502 160.265 83.704 149.415 83.704 C 139.524 83.703 133.01 77.187 133.01 67.293 M 119.988 114.814 C 121.68 110.478 119.509 108.306 117.576 108.306 C 108.652 108.306 97.074 129.292 92.74 129.292 C 91.048 129.292 89.601 127.6 89.601 126.153 C 89.601 121.81 100.211 111.684 103.35 108.544 C 112.995 99.378 125.537 92.383 139.524 92.383 C 149.895 92.383 160.992 98.652 152.306 122.056 L 134.942 169.092 C 133.496 172.71 130.845 178.746 130.845 182.604 C 130.845 184.288 131.804 185.981 133.734 185.981 C 140.967 185.981 154.235 165.474 157.614 165.474 C 158.819 165.474 160.503 166.919 160.503 169.091 C 160.503 176.086 132.29 206 107.931 206 C 99.245 206 93.217 201.903 93.217 192.737 C 93.217 181.158 101.417 161.377 103.109 157.272 C 103.109 157.272 119.988 114.814 119.988 114.814 Z"/>
  </g>
  <path fill="#FFFFFF" fill-rule="evenodd" d="M 133.01 67.293 C 133.01 56.68 142.175 48 152.786 48 C 162.437 48 169.43 54.507 169.43 64.402 C 169.43 75.502 160.265 83.704 149.415 83.704 C 139.524 83.703 133.01 77.187 133.01 67.293 M 119.988 114.814 C 121.68 110.478 119.509 108.306 117.576 108.306 C 108.652 108.306 97.074 129.292 92.74 129.292 C 91.048 129.292 89.601 127.6 89.601 126.153 C 89.601 121.81 100.211 111.684 103.35 108.544 C 112.995 99.378 125.537 92.383 139.524 92.383 C 149.895 92.383 160.992 98.652 152.306 122.056 L 134.942 169.092 C 133.496 172.71 130.845 178.746 130.845 182.604 C 130.845 184.288 131.804 185.981 133.734 185.981 C 140.967 185.981 154.235 165.474 157.614 165.474 C 158.819 165.474 160.503 166.919 160.503 169.091 C 160.503 176.086 132.29 206 107.931 206 C 99.245 206 93.217 201.903 93.217 192.737 C 93.217 181.158 101.417 161.377 103.109 157.272 C 103.109 157.272 119.988 114.814 119.988 114.814 Z"/>
 </g>
 <g opacity=".4">
  <linearGradient id="_lgradient_1" x1=".517" x2=".517" y1="0" y2="1">
   <stop offset="0%" style="stop-color:rgb(255,255,255)"/>
   <stop offset="12.5%" stop-opacity=".098" style="stop-color:rgb(255,255,255)"/>
   <stop offset="92.5%" stop-opacity=".098" style="stop-color:rgb(0,0,0)"/>
   <stop offset="100%" stop-opacity=".498" style="stop-color:rgb(0,0,0)"/>
  </linearGradient>
  <path fill="none" stroke="url(#_lgradient_1)" stroke-linecap="round" stroke-linejoin="round" stroke-width="4.077" d="M 165.685 11.947 C 239.74 11.947 250.324 22.504 250.324 96.491 L 250.324 155.742 C 250.324 229.728 239.74 240.285 165.685 240.285 L 90.315 240.285 C 16.26 240.285 5.676 229.728 5.676 155.742 L 5.676 96.491 C 5.676 22.504 16.26 11.947 90.315 11.947 L 165.685 11.947 Z" vector-effect="non-scaling-stroke"/>
 </g>
</svg>
